static/images/pieces/shogi/cz/1NG.svg

<svg height="31.358999mm" viewBox="0 0 27.116999 31.358999" width="27.116999mm" xmlns="http://www.w3.org/2000/svg" xmlns:xlink="http://www.w3.org/1999/xlink"><linearGradient id="a" gradientTransform="matrix(-1 0 0 -1 -343.2037 68.833938)" gradientUnits="userSpaceOnUse" x1="-290.43042" x2="-290.43042" y1="60.952808" y2="133.51753"><stop offset="0" stop-color="#ffdba6"/><stop offset="1" stop-color="#f2c478"/></linearGradient><clipPath id="b"><path d="m0 2834.646h2834.646v-2834.646h-2834.646z" transform="translate(-318.37961 -1474.0705)"/></clipPath><g clip-path="url(#b)" stroke-miterlimit="10" transform="matrix(-.35277776 0 0 .35277776 6.242631 25.699274)"><path d="m0 0-20.266 6.952c-.309.106-.643.106-.952 0l-20.266-6.952c-.545-.187-.946-.679-1.038-1.274l-9.381-60.689c-.151-.981.569-1.871 1.515-1.871h29.646 29.647c.945 0 1.666.89 1.514 1.871l-9.381 60.689c-.092.595-.492 1.087-1.038 1.274" fill="url(#a)"/><path d="m-50.388672-64.683594c-1.479368 0-2.580071 1.39044-2.355469 2.84961l9.38086 60.6894528c.138203.89381631.746532 1.65517134 1.603515 1.9492187l20.265625 6.9511719c.486906.1670289 1.017001.1670289 1.503907 0l20.26562463-6.9511719c.85811437-.29389631 1.46545427-1.05632204 1.60351557-1.9492187l9.3808598-60.6874998c.22622-1.460013-.876537-2.851563-2.3554691-2.851563h-29.6464839zm0 1.699219h29.646485 29.6464839c.4110655 0 .7516077.38864.6738281.890625l-9.38085938 60.6894531c-.0459385.2971021-.23877171.51950609-.47265625.5996094l-20.26562537 6.953125c-.131094.044971-.269296.044971-.40039 0l-20.265625-6.953125c-.233016-.0799523-.428813-.3034269-.47461-.5996094l-9.380859-60.6894531c-.07608-.501766.261798-.890625.673828-.890625z" fill="#4d3608"/></g><g fill="#f00"><path d="m13.626051 23.987184q.694531-.760677 1.058334-1.091407.429948-.429948 1.058333-.892969h-4.167189q1.157553.892969 2.050522 1.984376zm.165365.992188-.760678-.297657.132292-.165364q-.926042-1.025261-1.91823-1.752865-.79375-.529167-1.6867192-.859897.297656-.297656.4960932-.727604.529167.264583 1.190626.595313v-.463021h1.951303v-1.091407h-1.951303v-.661458h1.951303v-1.422136h-3.075783v-.694532h6.87917v.694532h-3.009637v1.422136h2.083595v.661458h-2.083595v1.091407h2.083595v.463021q.529167-.396875.992188-.628386.09922.231511.429948.661459-1.322917.760677-2.050522 1.389063-.79375.694531-1.653646 1.785938z" stroke-width=".352777"/><path d="m13.785186 6.1799558v8.0002002h-.450618v-8.0002002z" stroke-miterlimit="10" stroke-width=".352778"/><path d="m17.560071 9.9546706v.4506184h-8.0002002v-.4506184z" stroke-miterlimit="10" stroke-width=".352778"/><path d="m13.71904 10.020816 2.828423 2.828424-.318326.318326-2.828424-2.828423z" stroke-miterlimit="10" stroke-width=".352778"/><path d="m13.400706 10.020815.318326.318327-2.828423 2.828423-.318327-.318327z" stroke-miterlimit="10" stroke-width=".352778"/></g></svg>

<?xml version="1.0" encoding="UTF-8" standalone="no"?>
<!-- Created with Inkscape (http://www.inkscape.org/) -->

<svg
   width="27.116999mm"
   height="31.358999mm"
   viewBox="0 0 27.116999 31.358999"
   version="1.1"
   id="svg1"
   xmlns:xlink="http://www.w3.org/1999/xlink"
   xmlns="http://www.w3.org/2000/svg"
   xmlns:svg="http://www.w3.org/2000/svg">
  <defs
     id="defs1">
    <linearGradient
       xlink:href="#linearGradient22"
       id="linearGradient2"
       x1="-290.43042"
       y1="60.952808"
       x2="-290.43042"
       y2="133.51753"
       gradientUnits="userSpaceOnUse"
       gradientTransform="rotate(180,-171.60185,34.416969)" />
    <linearGradient
       id="linearGradient22">
      <stop
         style="stop-color:#ffdba6;stop-opacity:1;"
         offset="0"
         id="stop21" />
      <stop
         style="stop-color:#f2c478;stop-opacity:1;"
         offset="1"
         id="stop22" />
    </linearGradient>
    <clipPath
       clipPathUnits="userSpaceOnUse"
       id="clipPath1354">
      <path
         d="M 0,2834.646 H 2834.646 V 0 H 0 Z"
         transform="translate(-318.37961,-1474.0705)"
         id="path1354" />
    </clipPath>
  </defs>
  <g
     id="layer1">
    <g
       id="path1353"
       clip-path="url(#clipPath1354)"
       transform="matrix(-0.35277776,0,0,0.35277776,6.2426308,25.699274)">
      <path
         style="color:#000000;fill:url(#linearGradient2);stroke-miterlimit:10;-inkscape-stroke:none"
         d="m 0,0 -20.266,6.952 c -0.309,0.106 -0.643,0.106 -0.952,0 L -41.484,0 c -0.545,-0.187 -0.946,-0.679 -1.038,-1.274 l -9.381,-60.689 c -0.151,-0.981 0.569,-1.871 1.515,-1.871 h 29.646 29.647 c 0.945,0 1.666,0.89 1.514,1.871 L 1.038,-1.274 C 0.946,-0.679 0.546,-0.187 0,0"
         id="path9" />
      <path
         style="color:#000000;fill:#4d3608;stroke-miterlimit:10;-inkscape-stroke:none"
         d="m -50.388672,-64.683594 c -1.479368,0 -2.580071,1.39044 -2.355469,2.84961 l 9.38086,60.6894528 c 0.138203,0.89381631 0.746532,1.65517134 1.603515,1.9492187 l 20.265625,6.9511719 c 0.486906,0.1670289 1.017001,0.1670289 1.503907,0 L 0.27539063,0.8046875 C 1.133505,0.51079119 1.7408449,-0.25163454 1.8789062,-1.1445312 L 11.259766,-61.832031 c 0.22622,-1.460013 -0.876537,-2.851563 -2.3554691,-2.851563 H -20.742187 Z m 0,1.699219 h 29.646485 29.6464839 c 0.4110655,0 0.7516077,0.38864 0.6738281,0.890625 L 0.19726562,-1.4042969 c -0.0459385,0.2971021 -0.23877171,0.51950609 -0.47265625,0.5996094 L -20.541016,6.1484375 c -0.131094,0.044971 -0.269296,0.044971 -0.40039,0 l -20.265625,-6.953125 c -0.233016,-0.0799523 -0.428813,-0.3034269 -0.47461,-0.5996094 L -51.0625,-62.09375 c -0.07608,-0.501766 0.261798,-0.890625 0.673828,-0.890625 z"
         id="path10" />
    </g>
    <path
       style="fill:#ff0000;stroke-width:0.352777"
       d="m 13.626051,23.987184 q 0.694531,-0.760677 1.058334,-1.091407 0.429948,-0.429948 1.058333,-0.892969 h -4.167189 q 1.157553,0.892969 2.050522,1.984376 z m 0.165365,0.992188 -0.760678,-0.297657 0.132292,-0.165364 Q 12.236988,23.49109 11.2448,22.763486 10.45105,22.234319 9.5580808,21.903589 q 0.297656,-0.297656 0.4960932,-0.727604 0.529167,0.264583 1.190626,0.595313 v -0.463021 h 1.951303 V 20.21687 H 11.2448 v -0.661458 h 1.951303 V 18.133276 H 10.12032 v -0.694532 h 6.87917 v 0.694532 h -3.009637 v 1.422136 h 2.083595 v 0.661458 h -2.083595 v 1.091407 h 2.083595 v 0.463021 q 0.529167,-0.396875 0.992188,-0.628386 0.09922,0.231511 0.429948,0.661459 -1.322917,0.760677 -2.050522,1.389063 -0.79375,0.694531 -1.653646,1.785938 z"
       id="text1354"
       aria-label="全" />
    <path
       style="color:#000000;fill:#ff0000;stroke-width:0.352778;stroke-miterlimit:10;-inkscape-stroke:none"
       d="M 13.785186,6.1799558 V 14.180156 H 13.334568 V 6.1799558 Z"
       id="path1427" />
    <path
       style="color:#000000;fill:#ff0000;stroke-width:0.352778;stroke-miterlimit:10;-inkscape-stroke:none"
       d="M 17.560071,9.9546706 V 10.405289 H 9.5598708 V 9.9546706 Z"
       id="path1429" />
    <path
       style="color:#000000;fill:#ff0000;stroke-width:0.352778;stroke-miterlimit:10;-inkscape-stroke:none"
       d="m 13.71904,10.020816 2.828423,2.828424 -0.318326,0.318326 -2.828424,-2.828423 z"
       id="path1431" />
    <path
       style="color:#000000;fill:#ff0000;stroke-width:0.352778;stroke-miterlimit:10;-inkscape-stroke:none"
       d="m 13.400706,10.020815 0.318326,0.318327 -2.828423,2.828423 -0.318327,-0.318327 z"
       id="path1433" />
  </g>
</svg>
